public/avatar/hat/105.svg

<svg xmlns:xlink="http://www.w3.org/1999/xlink" height="92.9" width="100.7" xmlns="http://www.w3.org/2000/svg"><use height="24.9" transform="translate(22.4 37.5)" width="32" xlink:href="#a"/><defs><g id="a"><path d="M7.4 6q4 .9 4 1.95 0 1.8-2.2 3.15-1.8 1.55-10.45 1.55-7.2 0-9.75-1.65-2-1.4-2-2.75 0-.95 1.25-1.2L-10 6.7q1.8-1.25 5.5-1.4l5.15.05L7.4 6" fill="#43434e" fill-opacity=".353" fill-rule="evenodd" transform="translate(16.25 12.25)"/><path d="M3.95 1.8q-1.5-1-2.4-.75-.85.2-.35 1.15 1.55 2.75.9 8.65-.35 3.65 1.15 5.45 1.1 1.25 4 2.2 3.15 1.05 5.45-2.4L10.3 11q-.8-1.9-2.65-4.8-2.25-3.5-3.7-4.4Z" fill="none" stroke="#000" stroke-linecap="round" stroke-linejoin="round" stroke-width="2"/><path d="M-12.3-10.45q1.45.9 3.7 4.4 1.85 2.9 2.65 4.8l2.4 5.1Q-5.85 7.3-9 6.25q-2.9-.95-4-2.2-1.5-1.8-1.15-5.45.65-5.9-.9-8.65-.5-.95.35-1.15.9-.25 2.4.75" fill="#fff" fill-rule="evenodd" transform="translate(16.25 12.25)"/><path d="m-11.85-5.9 3.25 4.4 2.35 4.65q-1.2 3.3-1.65 3.55l-1.15-.05q-.8-.45-1-1.85.2-4-.35-6.1l-1.45-4.6" fill="#ffe4e4" fill-rule="evenodd" transform="translate(16.25 12.25)"/><path d="M21.75 6.2q2.25-3.5 3.7-4.4 1.5-1 2.45-.75.9.2.35 1.15-1.6 2.65-.95 8.65.4 3.65-1.15 5.45-1.1 1.25-4 2.2-2 .65-3.95-.8l-1.55-1.6 2.4-5.1q.8-1.9 2.7-4.8Z" fill="none" stroke="#000" stroke-linecap="round" stroke-linejoin="round" stroke-width="2"/><path d="M5.5-6.05q2.25-3.5 3.7-4.4 1.5-1 2.45-.75.9.2.35 1.15-1.6 2.65-.95 8.65.4 3.65-1.15 5.45-1.1 1.25-4 2.2-2 .65-3.95-.8L.4 3.85l2.4-5.1q.8-1.9 2.7-4.8" fill="#fff" fill-rule="evenodd" transform="translate(16.25 12.25)"/><path d="m9.2-6.25-.9 3q-.35 1.3.25 5 .4 2.15-.85 3.65L3.55 2.15q1-2.15 2-3.75L9.2-6.25" fill="#ffe4e4" fill-rule="evenodd" transform="translate(16.25 12.25)"/><path d="m3.7 18.95 1.95-3.15Q8 12.5 10.1 11.95l3 .1 1.15-1q1.45-.95 3.25-.75 5.3.55 8.35 3.5 2.4 2.25 2.5 3.8.05 1.25-.35 1.5" fill="none" stroke="#454545" stroke-linecap="round" stroke-linejoin="round" stroke-width="1.5"/><path d="m-12.45 6.2-.65 1.45q-.3 1.5 1.75 1.8 6.8 1.05 7.15.15l1.4-5.05.4 4.55q.4.5 2.9.7l5.4-.25q4.75-.8 5.55-2.25" fill="none" stroke="#5d6c81" stroke-linecap="round" stroke-linejoin="round" transform="translate(16.25 12.25)"/><path d="M3.65 9.5-2 9.15q-.3-.1-.45-2.5-.2-2.35-.3-2.35-1.85 5.2-2.2 5.2-6.7 0-7.45-.95-.9-1.2 1.2-3.5Q-8.9 2.5-4.3.5q3-1.35 6.1-.4Q5.9 1.35 6.95 2q5.7 3.6 3.8 5.3-2.2 2-7.1 2.2" fill="#ddebf6" fill-rule="evenodd" transform="translate(16.25 12.25)"/><path d="M5.1-.65q5.4 2.15 6.6 5.3 1.1 3.15-3 4.1L4.3 9l-2.35-.2-3-9.05L.7-.95l4.4.3" fill="#ddebf6" fill-rule="evenodd" transform="translate(16.25 12.25)"/><path d="M3.15 2.9-2.9.3l.85-1.05q1.35-1 3.8-.6 3.95.65 6.2 2.7L3.15 2.9" fill="#ddebf6" fill-rule="evenodd" transform="translate(16.25 12.25)"/><path d="m-6.4-.05 3-.2 1.15.7Q-9.55 8.3-10 8.3q-2.35 0-2.35-1.6 0-1 2.05-3.35Q-8.2.9-6.4-.05" fill="#ddebf6" fill-rule="evenodd" transform="translate(16.25 12.25)"/><path d="m-11.25 4.45-.2 2.7 2.6.05q1.35.25 2.55 1.25l2.9-2.75-1.55 3.8q-6.2.05-7.45-.95-.8-.65.1-2.45l1.05-1.65M3.4 6.95q2.7-.05 4.85.75.85-.25 3.45-3.05l.15.7q.05.85-.35 1.7-.55 1.3-5.55 2.25l-4.25.15-3.7-.3Q-2.45 9-2.55 5.4L-.9 8.2l1.4-.55q1.35-.65 2.9-.7" fill="#b8cfe0" fill-rule="evenodd" transform="translate(16.25 12.25)"/><path d="m-5 5.85-.55 1.35q-2.1-1-3.35-1.25l-3.05-.15 1.5-.95 3.3.2 2.15.8M5.6 5.8q-1.5-.55-3.55.25-2.4 1-2.8.75-.95-.55-.1-1.4v.15L2 4.15l4.25.15q1.95.4 3.5-.35l1.05-.25q.6.35.75 1.1.25 1.6-2.35 1.75-1.45.1-3.6-.75M1.95 1.6-.2 1.55l-.75.5-.95-.45q.1-.35-.65-.8-.55 1.9-.8 2-.3.1-1.8-1.4-2.1 1-2.9 1.2l-1.15-.1q-.2-.35.35-.95 1.55-1.45 3.4-2l1.9.15q.65.1 1.5-.55 2-1.6 4.7-.7Q6.05-.5 7.15.5l-3.4.15L2.5.55 1.95 1.6" fill="#fff" fill-rule="evenodd" transform="translate(16.25 12.25)"/><path d="m11.65-1.85 1.3-.3q1.4-.05 1.9 1.05 1.15 2.55-.95 6-.7 1.1-1.7 1.35" fill="none" stroke="#000" stroke-linecap="round" stroke-linejoin="round" transform="translate(16.25 12.25)"/><path d="M4.8-6.2 6.35-4l.6 1.75 1.6.25.9 1.15 1.65-.85" fill="none" stroke="#70496e" stroke-linecap="round" stroke-linejoin="round" transform="translate(16.25 12.25)"/><path d="M14-1.45q1.5.9.3 4.65-.75 2.3-2.9 3l-.6.15q-.8.15-2-.55-1.25-.85-1.95-2.65Q6 .9 6.25.45L8-.3l2.2-.8q2.6-1.05 3.8-.35" fill="#ef559d" fill-rule="evenodd" transform="translate(16.25 12.25)"/><path d="m-.85-2.2.75-2.2Q1-6.65 2.85-6.8q1.5-.15 1.95.95" fill="none" stroke="#000" stroke-linecap="round" stroke-linejoin="round" transform="translate(16.25 12.25)"/><path d="m-.85-1.5.5 2q.7.8 1.75.95" fill="none" stroke="#5d6c81" stroke-linecap="round" stroke-linejoin="round" transform="translate(16.25 12.25)"/><path d="M6.9-1.95q.95 1.7 2.4 1.1L8.9.3q-.7 1.3-2.4 1.15l-2.85-.2L1 .9Q-.35.3-.45-.55-.6-2.3.3-4.05q.85-1.8 2.2-2.25 1.35-.5 2.85 1.45l1.55 2.9" fill="#ef559d" fill-rule="evenodd" transform="translate(16.25 12.25)"/><path d="M5.4-1.75q1.6-.9 3.2.25t1.05 2.75q-1 2.85-3.3 2.05-1.8-.6-2.1-2.45-.3-1.8 1.15-2.6" fill="#ef559d" fill-rule="evenodd" transform="translate(16.25 12.25)"/><path d="M8.8 3.3q.75-1.4 2.2-2.05 1.5-.65 2.35.7.55.85.1 2.05-.4 1.05-1.25 1.65-1.15.8-2.4.25-1.45-.6-1.45-1.3 0-.6.45-1.3m.1-1.05q-.3 1.1-2.6.95Q5 3.1 5 1.85 4.95.65 6.05.2L8 .15q.75.3.95 1.65l-.05.45M.55-1.2q-.2-1.95 2.5-1.85 2.7.05 2.8 1.7L4.65.25Q3.3 1.8 2.15 1 .6-.05.55-1.2" fill="#c94783" fill-rule="evenodd" transform="translate(16.25 12.25)"/><path d="m10.65 6.65 1.5-.2" fill="none" stroke="#5d6c81" stroke-linecap="round" stroke-linejoin="round" transform="translate(16.25 12.25)"/><path d="m0 1.55 2-.6Q4.35.6 6.7 1.9q3.2 1.7 4.15 4.7-1 .1-2.2-.6l-3.1-2.7-4.15-.6L0 1.55" fill="#ddebf6" fill-rule="evenodd" transform="translate(16.25 12.25)"/><path d="m9.9 6.55.95.05q.6.8.2 1.05l-1.15.1v-1.2" fill="#b8cfe0" fill-rule="evenodd" transform="translate(16.25 12.25)"/></g></defs></svg>

<?xml version="1.0" encoding="UTF-8" standalone="no"?>
<svg xmlns:xlink="http://www.w3.org/1999/xlink" height="92.9px" width="100.7px" xmlns="http://www.w3.org/2000/svg">
  <g transform="matrix(1.0, 0.0, 0.0, 1.0, 38.65, 49.75)">
    <use height="24.9" transform="matrix(1.0, 0.0, 0.0, 1.0, -16.25, -12.25)" width="32.0" xlink:href="#shape0"/>
  </g>
  <defs>
    <g id="shape0" transform="matrix(1.0, 0.0, 0.0, 1.0, 16.25, 12.25)">
      <path d="M7.4 6.0 Q11.4 6.9 11.4 7.95 11.4 9.75 9.2 11.1 7.4 12.65 -1.25 12.65 -8.45 12.65 -11.0 11.0 -13.0 9.6 -13.0 8.25 -13.0 7.3 -11.75 7.05 L-10.0 6.7 Q-8.2 5.45 -4.5 5.3 L0.65 5.35 7.4 6.0" fill="#43434e" fill-opacity="0.3529412" fill-rule="evenodd" stroke="none"/>
      <path d="M-12.3 -10.45 Q-13.8 -11.45 -14.7 -11.2 -15.55 -11.0 -15.05 -10.05 -13.5 -7.3 -14.15 -1.4 -14.5 2.25 -13.0 4.05 -11.9 5.3 -9.0 6.25 -5.85 7.3 -3.55 3.85 L-5.95 -1.25 Q-6.75 -3.15 -8.6 -6.05 -10.85 -9.55 -12.3 -10.45 Z" fill="none" stroke="#000000" stroke-linecap="round" stroke-linejoin="round" stroke-width="2.0"/>
      <path d="M-12.3 -10.45 Q-10.85 -9.55 -8.6 -6.05 -6.75 -3.15 -5.95 -1.25 L-3.55 3.85 Q-5.85 7.3 -9.0 6.25 -11.9 5.3 -13.0 4.05 -14.5 2.25 -14.15 -1.4 -13.5 -7.3 -15.05 -10.05 -15.55 -11.0 -14.7 -11.2 -13.8 -11.45 -12.3 -10.45" fill="#ffffff" fill-rule="evenodd" stroke="none"/>
      <path d="M-11.85 -5.9 L-8.6 -1.5 -6.25 3.15 Q-7.45 6.45 -7.9 6.7 L-9.05 6.65 Q-9.85 6.2 -10.05 4.8 -9.85 0.8 -10.4 -1.3 L-11.85 -5.9" fill="#ffe4e4" fill-rule="evenodd" stroke="none"/>
      <path d="M5.5 -6.05 Q7.75 -9.55 9.2 -10.45 10.7 -11.45 11.65 -11.2 12.55 -11.0 12.0 -10.05 10.4 -7.4 11.05 -1.4 11.45 2.25 9.9 4.05 8.8 5.3 5.9 6.25 3.9 6.9 1.95 5.45 L0.4 3.85 2.8 -1.25 Q3.6 -3.15 5.5 -6.05 Z" fill="none" stroke="#000000" stroke-linecap="round" stroke-linejoin="round" stroke-width="2.0"/>
      <path d="M5.5 -6.05 Q7.75 -9.55 9.2 -10.45 10.7 -11.45 11.65 -11.2 12.55 -11.0 12.0 -10.05 10.4 -7.4 11.05 -1.4 11.45 2.25 9.9 4.05 8.8 5.3 5.9 6.25 3.9 6.9 1.95 5.45 L0.4 3.85 2.8 -1.25 Q3.6 -3.15 5.5 -6.05" fill="#ffffff" fill-rule="evenodd" stroke="none"/>
      <path d="M9.2 -6.25 L8.3 -3.25 Q7.95 -1.95 8.55 1.75 8.95 3.9 7.7 5.4 L3.55 2.15 Q4.55 0.0 5.55 -1.6 L9.2 -6.25" fill="#ffe4e4" fill-rule="evenodd" stroke="none"/>
      <path d="M-12.55 6.7 L-10.6 3.55 Q-8.25 0.25 -6.15 -0.3 L-3.15 -0.2 -2.0 -1.2 Q-0.55 -2.15 1.25 -1.95 6.55 -1.4 9.6 1.55 12.0 3.8 12.1 5.35 12.15 6.6 11.75 6.85" fill="none" stroke="#454545" stroke-linecap="round" stroke-linejoin="round" stroke-width="1.5"/>
      <path d="M-12.45 6.2 L-13.1 7.65 Q-13.4 9.15 -11.35 9.45 -4.55 10.5 -4.2 9.6 L-2.8 4.55 -2.4 9.1 Q-2.0 9.6 0.5 9.8 L5.9 9.55 Q10.65 8.75 11.45 7.3" fill="none" stroke="#5d6c81" stroke-linecap="round" stroke-linejoin="round" stroke-width="1.0"/>
      <path d="M3.65 9.5 L-2.0 9.15 Q-2.3 9.05 -2.45 6.65 -2.65 4.3 -2.75 4.3 -4.6 9.5 -4.95 9.5 -11.65 9.5 -12.4 8.55 -13.3 7.35 -11.2 5.05 -8.9 2.5 -4.3 0.5 -1.3 -0.85 1.8 0.1 5.9 1.35 6.95 2.0 12.65 5.6 10.75 7.3 8.55 9.3 3.65 9.5" fill="#ddebf6" fill-rule="evenodd" stroke="none"/>
      <path d="M5.1 -0.65 Q10.5 1.5 11.7 4.65 12.8 7.8 8.7 8.75 L4.3 9.0 1.95 8.8 -1.05 -0.25 0.7 -0.95 5.1 -0.65" fill="#ddebf6" fill-rule="evenodd" stroke="none"/>
      <path d="M3.15 2.9 L-2.9 0.3 -2.05 -0.75 Q-0.7 -1.75 1.75 -1.35 5.7 -0.7 7.95 1.35 L3.15 2.9" fill="#ddebf6" fill-rule="evenodd" stroke="none"/>
      <path d="M-6.4 -0.05 L-3.4 -0.25 -2.25 0.45 Q-9.55 8.3 -10.0 8.3 -12.35 8.3 -12.35 6.7 -12.35 5.7 -10.3 3.35 -8.2 0.9 -6.4 -0.05" fill="#ddebf6" fill-rule="evenodd" stroke="none"/>
      <path d="M-11.25 4.45 L-11.45 7.15 -8.85 7.2 Q-7.5 7.45 -6.3 8.45 L-3.4 5.7 -4.95 9.5 Q-11.15 9.55 -12.4 8.55 -13.2 7.9 -12.3 6.1 L-11.25 4.45" fill="#b8cfe0" fill-rule="evenodd" stroke="none"/>
      <path d="M3.4 6.95 Q6.1 6.9 8.25 7.7 9.1 7.45 11.7 4.65 L11.85 5.35 Q11.9 6.2 11.5 7.05 10.95 8.35 5.95 9.3 L1.7 9.45 -2.0 9.15 Q-2.45 9.0 -2.55 5.4 L-0.9 8.2 0.5 7.65 Q1.85 7.0 3.4 6.95" fill="#b8cfe0" fill-rule="evenodd" stroke="none"/>
      <path d="M-5.0 5.85 L-5.55 7.2 Q-7.65 6.2 -8.9 5.95 L-11.95 5.8 -10.45 4.85 -7.15 5.05 -5.0 5.85" fill="#ffffff" fill-rule="evenodd" stroke="none"/>
      <path d="M5.6 5.8 Q4.1 5.25 2.05 6.05 -0.35 7.05 -0.75 6.8 -1.7 6.25 -0.85 5.4 L-0.85 5.55 2.0 4.15 6.25 4.3 Q8.2 4.7 9.75 3.95 L10.8 3.7 Q11.4 4.05 11.55 4.8 11.8 6.4 9.2 6.55 7.75 6.65 5.6 5.8" fill="#ffffff" fill-rule="evenodd" stroke="none"/>
      <path d="M1.95 1.6 L-0.2 1.55 -0.95 2.05 -1.9 1.6 Q-1.8 1.25 -2.55 0.8 -3.1 2.7 -3.35 2.8 -3.65 2.9 -5.15 1.4 -7.25 2.4 -8.05 2.6 L-9.2 2.5 Q-9.4 2.15 -8.85 1.55 -7.3 0.1 -5.45 -0.45 L-3.55 -0.3 Q-2.9 -0.2 -2.05 -0.85 -0.05 -2.45 2.65 -1.55 6.05 -0.5 7.15 0.5 L3.75 0.65 2.5 0.55 1.95 1.6" fill="#ffffff" fill-rule="evenodd" stroke="none"/>
      <path d="M11.65 -1.85 L12.95 -2.15 Q14.35 -2.2 14.85 -1.1 16.0 1.45 13.9 4.9 13.2 6.0 12.2 6.25" fill="none" stroke="#000000" stroke-linecap="round" stroke-linejoin="round" stroke-width="1.0"/>
      <path d="M4.8 -6.2 L6.35 -4.0 6.95 -2.25 8.55 -2.0 9.45 -0.85 11.1 -1.7" fill="none" stroke="#70496e" stroke-linecap="round" stroke-linejoin="round" stroke-width="1.0"/>
      <path d="M14.0 -1.45 Q15.5 -0.55 14.3 3.2 13.55 5.5 11.4 6.2 L10.8 6.35 Q10.0 6.5 8.8 5.8 7.55 4.95 6.85 3.15 6.0 0.9 6.25 0.45 L8.0 -0.3 10.2 -1.1 Q12.8 -2.15 14.0 -1.45" fill="#ef559d" fill-rule="evenodd" stroke="none"/>
      <path d="M-0.85 -2.2 L-0.1 -4.4 Q1.0 -6.65 2.85 -6.8 4.35 -6.95 4.8 -5.85" fill="none" stroke="#000000" stroke-linecap="round" stroke-linejoin="round" stroke-width="1.0"/>
      <path d="M-0.85 -1.5 L-0.35 0.5 Q0.35 1.3 1.4 1.45" fill="none" stroke="#5d6c81" stroke-linecap="round" stroke-linejoin="round" stroke-width="1.0"/>
      <path d="M6.9 -1.95 Q7.85 -0.25 9.3 -0.85 L8.9 0.3 Q8.2 1.6 6.5 1.45 L3.65 1.25 1.0 0.9 Q-0.35 0.3 -0.45 -0.55 -0.6 -2.3 0.3 -4.05 1.15 -5.85 2.5 -6.3 3.85 -6.8 5.35 -4.85 L6.9 -1.95" fill="#ef559d" fill-rule="evenodd" stroke="none"/>
      <path d="M5.4 -1.75 Q7.0 -2.65 8.6 -1.5 10.2 -0.35 9.65 1.25 8.65 4.1 6.35 3.3 4.55 2.7 4.25 0.85 3.95 -0.95 5.4 -1.75" fill="#ef559d" fill-rule="evenodd" stroke="none"/>
      <path d="M8.8 3.3 Q9.55 1.9 11.0 1.25 12.5 0.6 13.35 1.95 13.9 2.8 13.45 4.0 13.05 5.05 12.2 5.65 11.05 6.45 9.8 5.9 8.35 5.3 8.35 4.6 8.35 4.0 8.8 3.3" fill="#c94783" fill-rule="evenodd" stroke="none"/>
      <path d="M8.9 2.25 Q8.6 3.35 6.3 3.2 5.0 3.1 5.0 1.85 4.95 0.65 6.05 0.2 L8.0 0.15 Q8.75 0.45 8.95 1.8 L8.9 2.25" fill="#c94783" fill-rule="evenodd" stroke="none"/>
      <path d="M0.55 -1.2 Q0.35 -3.15 3.05 -3.05 5.75 -3.0 5.85 -1.35 L4.65 0.25 Q3.3 1.8 2.15 1.0 0.6 -0.05 0.55 -1.2" fill="#c94783" fill-rule="evenodd" stroke="none"/>
      <path d="M10.65 6.65 L12.15 6.45" fill="none" stroke="#5d6c81" stroke-linecap="round" stroke-linejoin="round" stroke-width="1.0"/>
      <path d="M0.0 1.55 L2.0 0.95 Q4.35 0.6 6.7 1.9 9.9 3.6 10.85 6.6 9.85 6.7 8.65 6.0 L5.55 3.3 1.4 2.7 0.0 1.55" fill="#ddebf6" fill-rule="evenodd" stroke="none"/>
      <path d="M9.9 6.55 L10.85 6.6 Q11.45 7.4 11.05 7.65 L9.9 7.75 9.9 6.55" fill="#b8cfe0" fill-rule="evenodd" stroke="none"/>
    </g>
  </defs>
</svg>
